Adwaita++/actions/16/username-copy.svg

<svg height="16" width="16" xmlns="http://www.w3.org/2000/svg">
  <path d="m8 2c1.66 0 3 1.34 3 3 0 1.65-1.34 3-3 3s-3-1.35-3-3c0-1.66 1.34-3 3-3zm0 7c6-.01 6 4 6 4v1h-12v-1s0-4 6-4z" fill="#474747"/>
</svg>

<svg xmlns="http://www.w3.org/2000/svg" width="16" height="16" version="1.1">
 <defs>
  <style id="current-color-scheme" type="text/css">
   .ColorScheme-Text { color:#474747; } .ColorScheme-Highlight { color:#4285f4; }
  </style>
 </defs>
 <path style="fill:currentColor" class="ColorScheme-Text" d="M 8,2 C 9.66,2 11,3.34 11,5 11,6.65 9.66,8 8,8 6.34,8 5,6.65 5,5 5,3.34 6.34,2 8,2 Z M 8,9 C 14,8.99 14,13 14,13 V 14 H 2 V 13 C 2,13 2,9 8,9 Z"/>
</svg>
